!!!COM:  Endresen, R. W.
!!!OTL:  Supplementary Study No. 37
!!!ONB:  Royal Conservatory of Music Grade 4
!!!YEC:  Copyright 2001, Joy Ollen
!!!YEM:  Rights to all derivative electronic formats reserved.
!! [Andante cantabile]
**kern	**dynam
*MM75	*
*clefG2	*
*k[b-]	*
*M4/4	*
=-	=-
4.ff	mp
.	<
8aa	(
(8ccc	(
8aa	(
8ff	Xmf
8ee)	.
=2	=2
4ee	>
2dd	)
8ee	Xmp
8ff	.
=3	=3
4gg	.
.	<
(8aa	(
8bb-	(
8ddd)	Xmf
4ccc	.
8gg	.
=4	=4
(2bb-	>
4aa),	)
4cc	Xmp
=5	=5
4.ff	<
8aa	(
(8ccc	Xmf
8aa	.
8ff	.
8ee)	.
=6	=6
4ee	>
2dd	)
8ee	Xmp
8ff	.
=7	=7
4gg	.
(8aa	.
8bb-	.
8ddd)	.
4ccc	.
8ee	.
.	>
=8	=8
2.ff	)
.	]
.	Xmp
4aa	mf
=9	=9
8aa	.
4gg#	.
8ee	.
4ggn	.
4ff	.
=10	=10
8ee	.
4dd	.
8a	.
4cc	.
4b-	.
=11	=11
8a	.
4aa^	.
8a	.
8b-	.
4gg#^	.
8b-	.
=12	=12
8a	.
4aa^	.
8a	.
8g	.
4bb-^	.
8aa	.
=13	=13
8aa	.
4gg#	.
8ee	.
4ggn	.
4ff	.
=14	=14
8ee	.
4dd	.
8aa	.
4ccc	.
4bb-	.
=15	=15
8aa	.
4a^	.
8aa	.
8bb-	.
4g^	.
8bb-	.
=16	=16
8ccc#	.
4e^	.
8ccc#	.
4ddd	.
4aa	.
=17	=17
8aa	.
4gg#	.
8ee	.
4ggn	.
4ff	.
=18	=18
8ee	.
4dd	.
8a	.
4cc	.
4bb-	.
=19	=19
8a	.
4ff^	.
8a	.
8g	.
4ee^	.
8g	.
=20	=20
8f	.
4dd^	.
8f	.
8e	.
4b-^	.
8a	.
=21	=21
8a	.
4dd	.
8ff	.
4aa	.
4ff	.
=22	=22
8a	.
4cc#	.
8ff	.
4aa	.
4ff	.
=23	=23
2.dd	>
.	]
4cc	p
=24	=24
4.ff	<
8aa	Xmf
(8ccc	.
8aa	.
8ff	.
8ee)	.
=25	=25
4ee	.
2dd	.
8ee	.
8ff	.
=26	=26
4gg	.
(8aa	.
8bb-	.
8ddd)	.
4ccc	.
8gg	.
=27	=27
(2bb-	.
4aa)	.
.	Xp
4cc	.
=28	=28
4.ff	<
8aa	Xmf
(8ccc	.
8aa	.
8ff	.
8ee)	.
=29	=29
4ee	>
2dd	)
8ee	Xmp
8ff	.
=30	=30
4gg	<
(8aa	(
8bb-	Xmf
8ddd)	.
4ccc	.
8ee	.
=31	=31
2.ff	>
8ee	Xmp
8ff	.
=32	=32
(2gg	.
4aa	.
4bb-)	.
=33	=33
(2ccc#	<
4ddd)	(
8eee	(
8fff	Xmf
=34	=34
4g	.
8a	.
8b-	.
8dd	.
4cc	.
8e	>
=35	=35
2.f	)
.	Xmp
4r	.
==	==
*-	*-
